src/assets/images/lenny.svg

<svg height="32" viewBox="0 0 32 32" width="32" xmlns="http://www.w3.org/2000/svg"><path d="m15.405731 7h1.2092849c1.620652 0 3.0936542.66265128 4.1612063 1.73017845 1.4259661 1.42596605 2.582922 4.44122655.9244712 6.09967735-.3061348.3061348-.6840223.5407166-1.1055256.6758334.2887584.2334833.5408415.5014199.7556252.804384.2624191-.0128326.5571943-.0005992.8231835-.0005992.5297066 0 1.0015167.2734542 1.3348896.7139318.303039.4004069.4911339.9455426.4911339 1.5384884 0 .6567842-.9986456.6567842-.9986456 0 0-.3711467-.1104252-.702722-.288309-.9377532-.1475499-.1949606-.33914-.3160214-.5390689-.3160214h-.3131502c.1382874.4075972.2091663.8331201.2091663 1.2635613 0 1.6153092-.6604543 3.0834181-1.7244612 4.1474001-2.3145609 2.3146108-6.3557051 2.3146108-8.670266 0-1.0640069-1.063982-1.72446118-2.5320909-1.72446118-4.1474001 0-.4321389.07047938-.8547158.20916628-1.2635613h-.33394704c-.19992885 0-.39151901.1210608-.53906889.3160214-.17788375.2350312-.28830898.5666065-.28830898.9377532 0 .6567842-.99864559.6567842-.99864559 0 0-.5929458.1880949-1.1380815.4911339-1.5384884.33337286-.4404776.80518297-.7139318 1.33488956-.7139318.25732604 0 .59564214-.0199729.84303164.0019724.2143093-.3031639.465269-.5702017.7565489-.8057323-.4215033-.1350918-.7993908-.3696986-1.1055256-.6758583-1.65845073-1.6584508-.50144492-4.6737113.9244961-6.09967735 1.0675272-1.06752717 2.5405045-1.73017845 4.1611565-1.73017845zm2.7295231 8.635563h-4.2497114c-.8068806 0-1.5408352.3304768-2.0732132.8628797-.5324029.532403-.8628797 1.2663575-.8628797 2.0732382 0 1.3396082.5484062 2.5578309 1.431908 3.4413077 1.9245898 1.9246397 5.3334914 1.9246397 7.2580812 0 .8835018-.8834768 1.431908-2.1016995 1.431908-3.4413077 0-.8068807-.3304768-1.5408352-.8628797-2.0732382-.532378-.5324029-1.2663326-.8628797-2.0732132-.8628797zm-3.1723725-5.156107c.6721634.6721134.6721134 1.7752423 0 2.4473558-.6720885.6721384-1.7752423.6721384-2.4473308 0-.6721135-.6721135-.6721634-1.7752424 0-2.4473558.6720885-.67213842 1.7752423-.67213842 2.4473308 0zm-.7060924.7060924c-.2841895-.2842396-.7509565-.2842396-1.0351461 0-.2842644.2842145-.2842145.7509565 0 1.035171.2841896.2842395.7509566.2842395 1.0351461 0 .2842146-.2842145.2842645-.7509565 0-1.035171zm5.2484818-.7103616c.6721384.6720885.6721384 1.7752423 0 2.4473308-.6720885.6721384-1.7752424.6721384-2.4473308 0-.6721384-.6720885-.6721384-1.7752423 0-2.4473308.6720884-.67213843 1.7752423-.67213843 2.4473308 0zm-.7060924.7060923c-.2841896-.2842395-.7509565-.2842395-1.0351461 0-.2842395.2841896-.2842395.7509566 0 1.0351461.2841896.2842395.7509565.2842395 1.0351461 0 .2842395-.2841895.2842395-.7509565 0-1.0351461zm-2.1841627-3.18263351h-1.2092849c-1.3449509 0-2.5680421.55060324-3.4550641 1.43762522-1.0088068 1.00883179-2.1411211 3.47086759-.9244961 4.68749259.3165956.3166206.7529038.513154 1.2323785.513154h1.6269934 4.2497114 1.6269434c.4794997 0 .915808-.1965334 1.2324036-.513154 1.2166499-1.2166499.0843606-3.6786608-.9244712-4.68749259-.887047-.88702198-2.1101631-1.43762522-3.455114-1.43762522z" fill="#ff9580" fill-rule="evenodd"/></svg>

<svg xmlns="http://www.w3.org/2000/svg" width="32" height="32" viewBox="0 0 32 32">
  <path fill="#FF9580" fill-rule="evenodd" d="M15.405731,7 L16.6150159,7 C18.2356679,7 19.7086701,7.66265128 20.7762222,8.73017845 C22.2021883,10.1561445 23.3591442,13.171405 21.7006934,14.8298558 C21.3945586,15.1359906 21.0166711,15.3705724 20.5951678,15.5056892 C20.8839262,15.7391725 21.1360093,16.0071091 21.350793,16.3100732 C21.6132121,16.2972406 21.9079873,16.309474 22.1739765,16.309474 C22.7036831,16.309474 23.1754932,16.5829282 23.5088661,17.0234058 C23.8119051,17.4238127 24,17.9689484 24,18.5618942 C24,19.2186784 23.0013544,19.2186784 23.0013544,18.5618942 C23.0013544,18.1907475 22.8909292,17.8591722 22.7130454,17.624141 C22.5654955,17.4291804 22.3739054,17.3081196 22.1739765,17.3081196 L21.8608263,17.3081196 C21.9991137,17.7157168 22.0699926,18.1412397 22.0699926,18.5716809 C22.0699926,20.1869901 21.4095383,21.655099 20.3455314,22.719081 C18.0309705,25.0336918 13.9898263,25.0336918 11.6752654,22.719081 C10.6112585,21.655099 9.95080422,20.1869901 9.95080422,18.5716809 C9.95080422,18.139542 10.0212836,17.7169651 10.1599705,17.3081196 L9.82602346,17.3081196 C9.62609461,17.3081196 9.43450445,17.4291804 9.28695457,17.624141 C9.10907082,17.8591722 8.99864559,18.1907475 8.99864559,18.5618942 C8.99864559,19.2186784 8,19.2186784 8,18.5618942 C8,17.9689484 8.1880949,17.4238127 8.4911339,17.0234058 C8.82450676,16.5829282 9.29631687,16.309474 9.82602346,16.309474 C10.0833495,16.309474 10.4216656,16.2895011 10.6690551,16.3114464 C10.8833644,16.0082825 11.1343241,15.7412447 11.425604,15.5057141 C11.0041007,15.3706223 10.6262132,15.1360155 10.3200784,14.8298558 C8.66162767,13.171405 9.81863348,10.1561445 11.2445745,8.73017845 C12.3121017,7.66265128 13.785079,7 15.405731,7 Z M18.1352541,15.635563 L13.8855427,15.635563 C13.0786621,15.635563 12.3447075,15.9660398 11.8123295,16.4984427 C11.2799266,17.0308457 10.9494498,17.7648002 10.9494498,18.5716809 C10.9494498,19.9112891 11.497856,21.1295118 12.3813578,22.0129886 C14.3059476,23.9376283 17.7148492,23.9376283 19.639439,22.0129886 C20.5229408,21.1295118 21.071347,19.9112891 21.071347,18.5716809 C21.071347,17.7648002 20.7408702,17.0308457 20.2084673,16.4984427 C19.6760893,15.9660398 18.9421347,15.635563 18.1352541,15.635563 Z M14.9628816,10.479456 C15.635045,11.1515694 15.634995,12.2546983 14.9628816,12.9268118 C14.2907931,13.5989502 13.1876393,13.5989502 12.5155508,12.9268118 C11.8434373,12.2546983 11.8433874,11.1515694 12.5155508,10.479456 C13.1876393,9.80731758 14.2907931,9.80731758 14.9628816,10.479456 Z M14.2567892,11.1855484 C13.9725997,10.9013088 13.5058327,10.9013088 13.2216431,11.1855484 C12.9373787,11.4697629 12.9374286,11.9365049 13.2216431,12.2207194 C13.5058327,12.5049589 13.9725997,12.5049589 14.2567892,12.2207194 C14.5410038,11.9365049 14.5410537,11.4697629 14.2567892,11.1855484 Z M19.505271,10.4751868 C20.1774094,11.1472753 20.1774094,12.2504291 19.505271,12.9225176 C18.8331825,13.594656 17.7300286,13.594656 17.0579402,12.9225176 C16.3858018,12.2504291 16.3858018,11.1472753 17.0579402,10.4751868 C17.7300286,9.80304837 18.8331825,9.80304837 19.505271,10.4751868 Z M18.7991786,11.1812791 C18.514989,10.8970396 18.0482221,10.8970396 17.7640325,11.1812791 C17.479793,11.4654687 17.479793,11.9322357 17.7640325,12.2164252 C18.0482221,12.5006647 18.514989,12.5006647 18.7991786,12.2164252 C19.0834181,11.9322357 19.0834181,11.4654687 18.7991786,11.1812791 Z M16.6150159,7.99864559 L15.405731,7.99864559 C14.0607801,7.99864559 12.8376889,8.54924883 11.9506669,9.43627081 C10.9418601,10.4451026 9.8095458,12.9071384 11.0261708,14.1237634 C11.3427664,14.440384 11.7790746,14.6369174 12.2585493,14.6369174 L13.8855427,14.6369174 L18.1352541,14.6369174 L19.7621975,14.6369174 C20.2416972,14.6369174 20.6780055,14.440384 20.9946011,14.1237634 C22.211251,12.9071135 21.0789617,10.4451026 20.0701299,9.43627081 C19.1830829,8.54924883 17.9599668,7.99864559 16.6150159,7.99864559 L16.6150159,7.99864559 Z"/>
</svg>
